X:934
T:Fhleasgaich Oig Is Ceanalta
C:Joe Buchanan's Scottish Tome - Page 547.1
I:547 1
Z:Carl Allison
R:Waltz
L:1/4
M:3/4
K:D
F A2 | d2 d | =c d2 | D2 D | F A2 | =c2 e/d/ | =c3 | d e |
d2 B | A2 D | G2 G | A2 B/c/ | d2 F | E =C2 | D3 | D3 :| 

